X: 5
T: The STAR
%R: hornpipe
B: Jean White "100 Popular Hornpipes, Reels, Jigs and Country Dances", Boston 1880 p.3
F: http://www.loc.gov/resource/sm1880.09124.0#seq-1
Z: 2014 John Chambers <jc:trillian.mit.edu>
M: C|
L: 1/8
K: Bb
% - - - - - - - - - - - - - - - - - - - - - - - - - - - - -
D>E |\
F>Bd>c B>AG>F | E>Gc>d e>dc>B |\
A>ca>g (3fgf (3efe | (3ded (3cdc B>AG>F |
D>Fd>c B>AG>F | E>Gc>d e>dc>B |\
A>ca>g (3fgf (3edc | B2b2 B2 :|
|: (3fga |\
"^>"[b2d2] D>F B>df>b | "^>"[g2B2] E>G B>eg>b |\
"^>"[f2A2] C>E A>ce>f | "^>"[d2F2] B,>D F>Bd>f |
"^>"[b2d2] D>F B>df>b | "^>"[g2B2] E>G B>eg>b |\
"^>"[ac]>gf>=e _e>Ad>c | B2b2 B2 H:|
% - - - - - - - - - - - - - - - - - - - - - - - - - - - - -

%%sep 1 1 500
%%sep 1 1 500
